X:1
T:Sonatas for two recorders
T:Sonatas for two recorders
T:G. P. Telemann
T:by Mutopia-2006/12/18-885
T:by Mutopia-2006/12/18-885
T:by Mutopia-2006/12/18-885
T:by Mutopia-2006/12/18-885
T:by Mutopia-2006/12/18-885
T:by Mutopia-2006/12/18-885
T:by Mutopia-2006/12/18-885
T:by Mutopia-2006/12/18-885
C:G. P. Telemann
Z:by Mutopia-2006/12/18-885
%%score 1 2
L:1/8
Q:1/4=50
M:4/4
K:F
V:1 treble nm="Recorder 1"
V:2 treble nm="Recorder 2"
V:1
"^Dolce" f/g/a/b/ c'd'/e'/ f'f z e | d/e/f/g/ ab/c'/ d'd z c | B/c/d/e/ fg/a/ bB z A | %3
 G/d/c/B/ b/d/c/B/ e/g/f/e/ b/g/f/e/ | a/A/G/F/ c/A/G/F/ b/a/g/f/ d'/c'/b/a/ | %5
 b2 z a/g/ a/b/c'/d'/ e>f | f/g/a/b/ c'd'/e'/ f'f z e | d/c/d/=B/ c/B/c/A/ B/A/G z ^f | %8
 g/^f/g/=f/ g/^f/g/g/ g/e/=f z f | f/e/f/G/ f/e/f/f/ f/d/e z e | %10
 e/d/e/A/ d/c/d/=B/ c/g/c'/d'/ =b>c' | c'2 z2 z e/f/ g/e/f/d/ | e/d/c z ^c d/e/f/g/ a/b/4c'/4b/a/ | %13
 b/d'/a/d'/ b/d'/^f/d'/ gfga | b/d'/a/d'/ b/d'/a/d'/ b/a/g/a/ a>g | g2 z2 c/d/e/f/ g/a/b/c'/ | %16
 a/b/c' z/ a/b/g/ f/g/a/b/ c'd'/e'/ | f'f z e d/e/f/g/ ab/c'/ | d'd z c B/c/d/e/ fg/a/ | %19
 bB z a g/f/g/e/ f/e/f/d/ | e/d/c z c d/c/d/B/ d/c/d/f/ | e/f/g z/ f/g/e/ c/e/f/c/ f/e/f/F/ | %22
 B2- B/A/B/G/ A/e/f/b/ g>f | f/d/^c/d/ d'/d/=c/=B/ e/c/B/c/ c'/c/_B/A/ | %24
 d/B/A/B/ b/B/A/G/ c/A/G/A/ a/A/G/F/ | B/b/a/b/ d'/b/a/b/ e'2 z/ b/a/g/ | a/e/f/d/ e>f f2 z2 | %27
[Q:1/4=84]"^Allegro" z8 | z8 | z8 | z4 f2 c'2 | a=b/c'/ d'c' bge'g | afd'f gec'e | fd=bd ec'db | %34
 c'/c/d/e/ f/g/a/=b/ c'2 z2 | z/ c/d/e/ f/a/=b/c'/ d'/d/e/^f/ g/g/a/b/ | %36
 c'/c/d/e/ ^f/f/g/a/ =b/=B/c/d/ e/e/f/g/ | a/g/a/=b/ a/b/c'/d'/ ga/b/ c'2- | c'2 =b2 c'c AF | %39
 B2 b2 z a/g/ fg/a/ | Bg/f/ ef/g/ Af/e/ de/f/ | Fe/d/ cd/e/ FG/A/ BA/G/ | AB/c/ dc/B/ cd/e/ fe/d/ | %43
 ef/g/ ag/f/ gc z2 | z c'c'c' a/b/c' c'c' | ^fc'c'c' dd'/c'/ d'/c'/b/a/ | b2 z2 B2 z2 | %47
 A2 z2 ^c2 z2 | d/^c/d/e/ d/e/c/d/ e/d/e/f/ e/f/d/e/ | fefd gfge | a2 df g2 ce | f2 Bd e2 A^c | %52
 de/f/ gf/e/ fd'e^c' | de/f/ gf/e/ f>g e2 | d2 a z ^f z d z | e z ^f z g/d'/c'/d'/ b/d'/c'/d'/ | %56
 g/d'/c'/d'/ =b/d'/c'/d'/ f/e/f/g/ f/a/g/f/ | e2 z2 f2 b2 | ga/b/ c'b afd'f | g_ec'e fdbd | %60
 _ecac dbca | Bd'Ac' dbca | b>c' a>b b2 z2 | z/ f/g/a/ b/c'/d'/e'/ f'4- | f'2 e'4 d'2- | %65
 d'2 c'2- c'2 =b2 | c'/a/b/c'/ d'/d/e/f/ g/f/g/a/ g/a/=b/c'/ | f2 c'2 a=b/c'/ d'c' | =bge'g afd'f | %69
 gec'e fd=bd | ec'd=b cd/e/ fe/d/ | ec'd=b cd/e/ fe/d/ | e2 z A B/A/B/c/ d/c/d/e/ | %73
 f/e/f/g/ a/g/a/b/ c'efd' | a2 g2 f2 z/ F/G/A/ | B/A/B/c/ d/c/d/e/ f/A/B/c/ d/c/d/e/ | %76
 f/e/f/g/ a/c/d/e/ f/e/f/g/ a/g/a/b/ | c'd'/e'/ f'b a2 g2 | f4 z4 | %79
[M:3/4][Q:1/4=48]"^Largo" z2 a2 a2 | d'6- | d'^c'd'e' ag | fefedc | BAGABG | A2 z2 ^c2 | d2 b3 b | %86
 bg a3 a | d'b g3 a | a6 | z _e' d'c' ba | b2 _e'2 c'2 | a2 d'2 b2 | g2 c'a b2 | z c' (b2 a>)g | %94
 g6 | z d'c'bag | ac'bagf | gbagfe | f3 g a2 | z b g3 f | eAGBAd | ^c2 z dcf | eagbad' | %103
 ^c'2 c'3 =b/c'/ | d'a dc BG | cg cB AF | BAG^cdF | BGAFGA | d2 b2 g2 | e2 a2 f2 | d2 ge f2- | %111
 fg e3 d | d6 |[M:3/8][Q:1/4=100]"^Vivace" a/b/ b2 | c'/b/4a/4 b/4a/4g/4f/4c'/f/ | d' b2 | g z z | %117
 f/c/a/c/f/c/ | g/c/b/c/g/c/ | a/c/c'/c/b/c/ | a/b/a/g/f/g/ | a/b/ b2 | %122
 c'/b/4a/4 b/4a/4g/4f/4c'/f/ | d' b2 | g z z | cde | f z z | (3e/f/g/ (3f/g/a/ (3g/a/b/ | %128
 (3a/b/g/ (3a/b/g/ (3a/g/a/ | (3e/g/b/ (3a/=b/c'/ (3b/c'/d'/ | (3c'/d'/=b/ (3c'/d'/b/ (3c'/b/c'/ | %131
 d'/c'/=b/a/g/f/ | c'/=b/a/g/f/e/ | f z z | e z z | d/c/f/e/d/c/ | =b/g/a/b/c'- | c'/d'<=bc'/ | %138
 c'/=b/4a/4 g/4f/4e/4d/4 g/4f/4e/4d/4 | e/g/e/g/e/g/ | c'/=b/4a/4 g/4f/4e/4d/4 g/4f/4e/4d/4 | %141
 e/c'/ d>c | c3 :: e/f/ f2 | g/f/4e/4 f/4e/4d/4c/4 g/c/ | f/g/ g2 | a z z | a/d/d'/d/a/d/ | bgb | %149
 a/d/b/d/a/d/ | bgb | _e'/d'/c'/b/a/g/ | c'>d'b- | b/a<ac'/ | g>^fg- | g/f/e/d/^c/=B/ | %156
 A/=B/^c/A/d/a/ | d'/e'<^c'd'/ | (d'/c'/4b/4) a/4(g/4f/4)e/4 d'/4(c'/4=b/4)c'/4 | =b z z | %160
 c'/b/4a/4 g/4f/4e/4d/4 c'/4b/4a/4b/4 | (3a/b/c'/ (3b/c'/d'/ (3c'/d'/_e'/ | %162
 (3d'/_e'/c'/ (3d'/e'/c'/ (3d'/c'/d'/ | fga | b z z | (3a/b/c'/ (3b/c'/d'/ (3g/a/b/ | %166
 (3a/b/g/ (3a/b/g/ (3a/g/a/ | b z z | a z z | d'/c'/b/a/g/f/ | c'/b/a/g/f/e/ | b/a/g/f/b/a/ | %172
 b>ag/a/- | a/b<gf/ | f'/e'/4d'/4 c'/4b/4a/4g/4 c'/4b/4a/4g/4 | a/c'/a/c'/a/c'/ | %176
 f'/e'/4d'/4 c'/4b/4a/4g/4 c'/4b/4a/4g/4 | a/f'/ g>f | f3 :| %179
V:2
 z4 f/g/a/b/ c'd'/e'/ | f'f z e d/e/f/g/ ab/c'/ | d'd z c B/c/d/e/ fg/a/ | %3
 b/B/A/G/ d/B/A/G/ b/e/d/c/ g/e/d/c/ | F/c/B/A/ b/c/B/A/ d'/c'/b/a/ b/a/g/f/ | %5
 e/d/c z f/e/ f/c/d/B/ cc | F2 z2 f/g/a/b/ c'd'/e'/ | f'f z e d/c/d/=B/ c/B/c/A/ | %8
 =B/A/G z g a/g/a/f/ a/g/a/c'/ | =b/c'/d' z/ c'/d'/b/ g/b/c'/g/ c'/b/c'/c/ | %10
 f2- f/e/f/d/ e/c/e/f/ gG | ce/f/ g/e/f/d/ e/d/c z =B | c/d/e/f/ g/a/4b/4a/g/ f/e/d z ^f | %13
 g^fga b/d'/a/d'/ b/d'/f/d'/ | g>^f gf g/d/_e/c/ dd | G/A/=B/c/ d/e/f/g/ e/f/g z/ f/g/e/ | %16
 f/g/a/b/ c'd'/e'/ f'f z e | d/e/f/g/ ab/c'/ d'd z c | B/c/d/e/ fg/a/ bB z a | %19
 g/f/g/e/ f/e/f/d/ e/d/c z =b | c'/=b/c'/g/ c'/b/c'/c'/ c'/a/_b z b | b/a/b/c/ b/a/b/b/ b/g/a z a | %22
 a/g/a/d/ g/f/g/e/ f/c/d/B/ c^c | d/f/e/f/ =B/=b/a/g/ c/e/d/e/ A/a/g/f/ | %24
 B/d/c/d/ G/g/f/e/ A/c/B/G/ F/f/e/d/ | G/g/^f/g/ b/g/f/g/ c2 z/ g/=f/e/ | f/c/d/B/ cc F2 z2 | %27
 c2 f2 de/f/ gf | ecac dBgB | cAfA BGeG | AfGe Ffec | f2 f'2 z e'/d'/ c'd'/e'/ | %32
 fd'/c'/ =bc'/d'/ ec'/b/ ab/c'/ | d=b/a/ ga/b/ cd/e/ fe/d/ | e2 z2 z/ c/d/e/ f/g/a/=b/ | %35
 c'4- c'2 (=b2 | b2) a2- a2 g2- | g2 ^f2 g/e/=f/g/ a/A/=B/c/ | d/c/d/e/ d/e/f/g/ c2 f2 | %39
 de/f/ gf ecac | dBgB cAfA | BGeG AfGe | FG/A/ BA/G/ AB/c/ dc/B/ | cd/e/ fe/d/ ef/g/ ag/f/ | %44
 gc z2 _e2 z2 | d2 z2 ^f2 z2 | z ggg e/f/g gg | ^cggg Aa/g/ a/g/f/e/ | %48
 f/e/f/g/ f/g/e/f/ g/f/g/a/ g/a/f/g/ | a2 d'2 =bc'/d'/ e'd' | ^c'af'a bge'g | afd'f ge^c'e | %52
 fd'e^c' de/f/ gf/e/ | fd'e^c' dBGA | d/a/g/a/ f/a/g/a/ d/a/g/a/ ^f/a/g/a/ | %55
 c/=B/c/d/ c/_e/d/c/ _B2 d z | =B z G z A z B z | c2 f2 de/f/ gf | ec _e'2 z d'/c'/ bc'/d'/ | %59
 _ec'/b/ ab/c'/ db/a/ ga/b/ | ca/g/ fg/a/ Bd'Ac' | dbca Bd'Ac' | dBfF B/F/G/A/ B/c/d/e/ | %63
 f2 z2 z/ F/G/A/ B/d/e/f/ | g/g/a/b/ c'/c/d/e/ f/f/g/a/ b/B/c/d/ | %65
 e/e/f/g/ a/A/=B/c/ d/c/d/e/ d/e/f/g/ | cd/e/ f4 e2 | z fec f2 f'2 | %68
 z e'/d'/ c'd'/e'/ fd'/c'/ =bc'/d'/ | ec'/=b/ ab/c'/ fb/a/ ga/b/ | cd/e/ fe/d/ ec'd=b | %71
 cd/e/ fe/d/ ef/g/ ag/f/ | gc z A B/A/B/c/ d/c/d/e/ | f/e/f/g/ a/g/a/b/ c'cdB | %74
 cABc z/ F/G/A/ B/A/B/c/ | f/F/G/A/ B/A/B/c/ d/c/d/e/ f/A/B/c/ | %76
 d/c/d/e/ f/e/f/g/ a/c/d/e/ f/e/f/g/ | agad cfBc | F4 z4 |[M:3/4] defedc | BAGABG | A2 z2 ^c2 | %82
 d2 a2 a2 | d'6- | d'^c'd'e'ag | fedcdB | cefefF | B2 B3 A | Ad^cfeg | ^f2 f3 e/f/ | gd'gf_ec | %91
 fc'f_edB | _edc^fgB | _ecdBcd | Gc=Bedf | e2 e3 d/e/ | fc f3 f | fd e3 e | e^cdefe | fded^cd | %100
 A2 z2 z2 | z A GB Ad | ^c2 z dcf | ebagfe | f2 b2 g2 | e2 a2 f2 | d2 ge f2 | z g f2 e>d | %108
 da dc BG | cg cB AF | BA G^c dF | BG A4 | d6 |[M:3/8] f/g/ g2 | a z z | b g2 | %116
 e/f/4g/4 f/4e/4d/4c/4 g/c/ | AfA | ege | fag | f/A/B/G/A/c/ | f/g/ g2 | a z z | b g2 | %124
 e/f/4g/4 f/4e/4d/4c/4 g/c/ | (3e/f/g/ (3f/g/a/ (3g/a/b/ | (3a/b/g/ (3a/b/g/ (3a/g/a/ | cde | %128
 f z z | (3e/f/g/ (3f/g/a/ (3g/a/b/ | (3e/f/d/ (3e/f/d/ (3e/d/e/ | f z z | e z z | a/g/f/e/d/c/ | %134
 g/f/e/d/c/=B/ | f/e/d/c/f/e/ | f>de | e/f<dc/ | c/g/e/g/e/g/ | %139
 c'/=b/4a/4 g/4f/4e/4d/4 g/4f/4e/4d/4 | e/g/e/g/e/g/ | c'/c/ =B>c | c3 :: c/d/ d2 | e z z | %145
 d/e/ e2 | f/g/4a/4 g/4f/4e/4d/4 a/d/ | ^fdf | g/d/b/d/c'/d/ | ^fdf | g/d/b/d/g/d/ | %151
 c'/(b/a/g/)^f/e/ | d/e/^f/d/g/G/ | B/c/d/c/d/B/ | e/d/^c/d/c/e/ | b/a/(g/f/)e/d/ | g>a(f | %157
 g/)g<ed/ | d z z | g/f/4e/4 d/4c/4=B/4A/4 g/4f/4e/4f/4 | e z z | fga | b z z | %163
 (3a/b/c'/ (3b/c'/d'/ (3c'/d'/_e'/ | (3d'/_e'/c'/ (3d'/e'/c'/ (3d'/c'/d'/ | %165
 (3c/d/_e/ (3d/=e/f/ (3e/f/g/ | (3f/g/e/ (3f/g/e/ (3f/e/f/ | g/f/e/d/c/B/ | f/e/d/c/B/A/ | B z z | %170
 A z z | g/f/b/a/g/f/ | e/c/d/e/f- | f/g<ef/ | f/c'/a/c'/a/c'/ | %175
 f'/e'/4d'/4 c'/4b/4a/4g/4 c'/4b/4a/4g/4 | a/c'/a/c'/a/c'/ | f'/f/ Bc | F3 :| %179

